app/assets/icons/polaris/Columns3Minor.svg

<svg viewBox="0 0 20 20" xmlns="http://www.w3.org/2000/svg"><path fill-rule="evenodd" d="M16 2a2 2 0 0 1 2 2v12a2 2 0 0 1-2 2h-12a2 2 0 0 1-2-2v-12a2 2 0 0 1 2-2h12Zm-2.667 2h2.667v12h-2.667v-12Zm-4.666 0h2.666v12h-2.666v-12Zm-2 0h-2.667v12h2.667v-12Z"/></svg>

<svg viewBox="0 0 20 20" xmlns="http://www.w3.org/2000/svg"><path fill-rule="evenodd" d="M16 2a2 2 0 0 1 2 2v12a2 2 0 0 1-2 2H4a2 2 0 0 1-2-2V4a2 2 0 0 1 2-2h12zm-2.667 2H16v12h-2.667V4zM8.667 4h2.666v12H8.667V4zm-2 0H4v12h2.667V4z"/></svg>
